packages/ffe-icons/icons/filled/sm/directions_railway.svg

<svg xmlns="http://www.w3.org/2000/svg" height="20" viewBox="0 -960 960 960" width="20"><path d="M212.001-367.693V-720q0-62.384 60.231-93.191 60.23-30.808 207.768-30.808 145.23 0 206.614 31.385Q747.999-781.23 747.999-720v352.307q0 47.615-31.039 84.153-31.038 36.539-78.653 45.539l32.23 36.076q6.846 7.231 3.039 17.192-3.808 9.962-14.27 9.962H300.694q-10.462 0-14.27-9.962-3.807-9.961 3.039-17.192l32.23-36.076q-47.615-9-78.653-45.539-31.039-36.538-31.039-84.153ZM264-531.999h432v-149.232H264v149.232Zm216 188.306q16.923 0 28.615-11.692T520.307-384q0-16.923-11.692-28.615T480-424.307q-16.923 0-28.615 11.692T439.693-384q0 16.923 11.692 28.615T480-343.693Z"/></svg>

<svg xmlns="http://www.w3.org/2000/svg" height="20" viewBox="0 -960 960 960" width="20"><path d="M212-367.69V-720q0-62.38 60.23-93.19Q332.46-844 480-844q145.23 0 206.61 31.39Q748-781.23 748-720v352.31q0 47.61-31.04 84.15Q685.92-247 638.31-238l32.23 36.07q6.84 7.24 3.04 17.2-3.81 9.96-14.27 9.96H300.69q-10.46 0-14.27-9.96-3.8-9.96 3.04-17.2L321.69-238q-47.61-9-78.65-45.54Q212-320.08 212-367.69ZM264-532h432v-149.23H264V-532Zm216 188.31q16.92 0 28.61-11.7 11.7-11.69 11.7-28.61t-11.7-28.61q-11.69-11.7-28.61-11.7t-28.61 11.7q-11.7 11.69-11.7 28.61t11.7 28.61q11.69 11.7 28.61 11.7Z"/></svg>
